icon-themes/sifr_svg/cmd/lc_calloutshapes.rectangular-callout.svg

<svg viewBox="0 0 24 24" xmlns="http://www.w3.org/2000/svg"><g fill="#555753"><path d="m2 2v16h3v4h.5l4.859375-4h11.640625v-16zm2 2h16v12h-10.359375l-2.640625 2v-2h-3z"/><path d="m4 4h16v12h-10.359375l-2.640625 2v-2h-3z" opacity=".35"/></g></svg>

<svg xmlns="http://www.w3.org/2000/svg" viewBox="0 0 24 24">
  <path
     style="fill:#555753"
     d="m 2,2 v 16 h 3 v 4 h 0.5 l 4.859375,-4 H 22 V 2 Z M 4,4 H 20 V 16 H 9.640625 L 7,18 V 16 H 4 Z"
     />
  <path
     style="fill:#555753;opacity:0.35"
     d="M 4,4 H 20 V 16 H 9.640625 L 7,18 V 16 H 4 Z"
     />
</svg>
